X:1826
T:Marias polska
M:3/4
C:Robert Boström
L:1/8
K:G
Q:1/4=110
V:T1  clef=treble
V:T2  clef=treble
V:B1  clef=bass   %octave=+2 %middle=d %octave=-2
%
%%MIDI program 1 57 %   53=Choir Oohs  19 = Church Organ 56=trumpet
%%MIDI program 2 53 %   53=Choir Oohs  19 = Church Organ 56=trumpet
%%MIDI program 3 53
% 64
% %%MIDI program 5 19 % Church Organ
% %%MIDI program 6 19
[V:T1]|:(3G2d2G2 (3A-AG|(3A2D2-D2- (3D-DD|(3E2C2E2(3G-GE|(3FGA- (3AF-F (3G-GA|
[V:T2]|:[B6D6]|[A6D6]|[E6G6]|(3[D-F-][D-F][D-G-] [D2G2][D2A2]|
[V:B1]|:G,6|F,6|C,6|(3D,-D,E,- E,2 F,2 |
[V:T1](3G2d2G2 (3A-AG|(3A2D2-D2- (3D-DD|(3E2C2E2(3BAG|(3FGA G4:|
[V:T2][B6D6]|[A6D6]|[E6G6]|[F2A2][B4G4]:|
[V:B1]G,6|F,6|C,6 |D,2G,4:|
[V:T1]|:(3g2e2-e2- (3e-eg|(3fB-B B2- (3B-BB|(3c2A2B2 (3c-cd|(3ec-d- (3de-e (3f-fa|
[V:T2]|:[b6e6]|[b6d6]|[g6e6]|[e4g4][a2f2]|
[V:B1]|:E,6|B,,6|A,,6|C,4D,2|
[V:T1](3g2e2-e2- (3e-eg|(3fB-B B2- (3B-BB|(3c-cA (3Bc-c (3EFG|1(3DF-F G4:|
[V:T2][b6g6]|[b6f6]|[g4e4][e2g2]|1[d2f2][B4d4]:|
[V:B1]E,6|B,,6|A,,4C,2|1D,2G,4:|
[V:T1]|2(3DF-F G2- (3G-GF|(3ECE (3BAG (3FGA|G6||
[V:T2]|[d2f2][B4d4]|[G4c4][A2d2]|[B6D6]||
[V:B1]|D,2G,4|C,4D,2|G,6||
(:musicend:)
(:music:)
